X: 1
T: Dai Promise's Gondola
M: 4/4
L: 1/8
R: hornpipe
K: Amin
|:(3eee de cA (3AAA|ce (3eee Be (3eee|(3eee de cA (3AAA|GBdB (3AAA A2:|
efed cA (3AAA|cege Bege|AB (3cBA BE (3EEE|Gd (3ddd ^Fd (3ddd|
efed cA (3AAA|ca (3aaa Ba (3aaa|ecdB cA (3AAA|GBdB (3AAA A2||
